X:1
T:Burnley, 87.87 D
T:Burnley, 87.87 D
T:James McGranahan, 1877
T:Public Domain Courtesy of the Cyber Hymnal™
C:James McGranahan, 1877
Z:Public Domain
Z:Courtesy of the Cyber Hymnal™
%%score ( 1 2 ) ( 3 4 )
L:1/8
Q:1/4=115
M:9/8
K:Ab
V:1 treble 
V:2 treble 
V:3 bass 
V:4 bass 
V:1
 (EA)[DB] | [Ec]3 [Ec]3 ([Ec][DB])[CA] | [EB]3 [EB]3 (EG)[EB] | [Ed]3- [Ed]2 [Ed] (dc)[EB] | %4
 [Ec]6 (EA)[DB] | [Ec]3 [Ec]3 ([Ec][DB])[CA] | [EB]3 [EB]3 (EG)[EA] | [EB]3- [EB]2 [EB] (BA)[EG] | %8
 [EA]6 ([CA][DB])[Ec] | [Fd]8 [Fd] ([DF][FA])[Fd] | [Ec]3 [Ec]6 | ([CE][EA])[Ec] | %12
 B8 E2 [EB] (BA)[EB] | [Ec]8 ([CA][DB])[Ec] x | [Fd]8 [Fd] ([DF][FA])[Fd] | [Ec]3 [Ec]6 | %16
 ([CE][EA])[Ac] | [ce]8 [Bd] [Ac]2 [GB] | z2 x13 |] %19
V:2
 C2 x | x9 | x6 E2 x | x6 E2 x | x6 C2 x | x9 | x6 E2 x | x6 E2 x | x9 | x12 | x9 | x3 | %12
 (E2 E E2 E E2) x6 | x12 | x12 | x9 | x3 | x12 | A8 (E F2 F E3) |] %19
V:3
 A,2 A, | A,3 A,3 A,2 A, | [E,G,]3 [E,G,]3 [E,G,]2 [E,G,] | [E,B,]3- [E,B,]2 [E,B,] (B,A,)[E,G,] | %4
 [A,,A,]6 [A,,A,]2 [A,,A,] | [A,,A,]3 [A,,A,]3 [A,,A,]2 [A,,A,] | [E,G,]3 [E,G,]3 (G,B,)[E,C] | %7
 [E,D]3- [E,D]2 [E,D] (DC)[E,B,] | [A,,A,C]6 A,2 A, | %9
 ([D,A,]2 [D,A,] [D,A,]2 [D,A,] [D,A,]2) [D,A,] [D,A,]2 [D,A,] | %10
 ([A,,A,]2 [A,,A,]) ([A,,A,]2 [A,,A,] [A,,A,]2 [A,,A,]) | (A,C)[A,,E] | %12
 D6- D2 D ([E,D][F,C])[G,B,] x2 | A,A, A,2 A, A,3 A,2 A, x | %14
 ([D,A,]2 [D,A,] [D,A,]2 [D,A,] [D,A,]2) [D,A,] [D,A,]2 [D,A,] | %15
 ([A,,A,]2 [A,,A,]) ([A,,A,]2 [A,,A,] [A,,A,]2 [A,,A,]) | (A,C)[A,E] | %17
 [E,E]2 [E,E] [E,E]2 [E,E] [E,E]2 [E,E] [E,E]2 [E,E] | (C2 C D2 D C3) x6 |] %19
V:4
 A,2 A, | A,3 A,3 A,2 A, | x9 | x6 E,2 x | x9 | x9 | x6 E,2 x | x6 E,2 x | x6 A,2 A, | x12 | x9 | %11
 A,,2 x | E,2 E, E,2 E, E,3 x5 | A,2 A, A,2 A, A,3 A,2 A, | x12 | x9 | A,2 x | x12 | [A,,A,]8 x7 |] %19

